X: 21533
T: Kilcooley Wood
R: hornpipe
M: 4/4
K: Gmajor
GE|:DGGA BDcD|BDAD GABc|dg~g2 fgag|fdcA (3Bcd AF|
DGGA BDcD|BDAD GABc|dg~g2 fdcA|1 (3Bcd AF G2GE:|2 (3Bcd AF G2Bc||
|:dg~g2 fgaf|dgga bgaf|defg abag|fdcA (3Bcd AF|
DGGA BDcD|BDAD GABc|dg~g2 fdcA|1 (3Bcd AF GABc:|2 (3Bcd AF G2||

